resources/svg/arrow-up-circle-o.svg

<svg width="15" height="15" viewBox="0 0 15 15" fill="none" xmlns="http://www.w3.org/2000/svg">
<path d="M9.14645 6.85355L9.5 7.20711L10.2071 6.5L9.85355 6.14645L9.14645 6.85355ZM7.5 4.5L7.85355 4.14645L7.5 3.79289L7.14645 4.14645L7.5 4.5ZM5.14645 6.14645L4.79289 6.5L5.5 7.20711L5.85355 6.85355L5.14645 6.14645ZM14.5 7.5H14H14.5ZM7.5 14.5V14V14.5ZM7.5 0.5V0V0.5ZM0.5 7.5H0H0.5ZM9.85355 6.14645L7.85355 4.14645L7.14645 4.85355L9.14645 6.85355L9.85355 6.14645ZM7.14645 4.14645L5.14645 6.14645L5.85355 6.85355L7.85355 4.85355L7.14645 4.14645ZM7 4.5V11H8V4.5H7ZM14 7.5C14 11.0899 11.0899 14 7.5 14V15C11.6421 15 15 11.6421 15 7.5H14ZM7.5 1C11.0899 1 14 3.91015 14 7.5H15C15 3.35786 11.6421 -1.78814e-07 7.5 0V1ZM1 7.5C1 3.91015 3.91015 1 7.5 1V0C3.35786 1.78814e-07 -1.78814e-07 3.35786 0 7.5H1ZM0 7.5C1.78814e-07 11.6421 3.35787 15 7.5 15V14C3.91015 14 1 11.0899 1 7.5H0Z" fill="black"/>
</svg>

<svg viewBox="0 0 15 15" fill="none" xmlns="http://www.w3.org/2000/svg" fill="currentColor"><path d="M9.146 6.854l.354.353.707-.707-.353-.354-.708.708zM7.5 4.5l.354-.354-.354-.353-.354.353.354.354zM5.146 6.146l-.353.354.707.707.354-.353-.708-.708zM14.5 7.5H14h.5zm-7 7V14v.5zm0-14V0v.5zm-7 7H0h.5zm9.354-1.354l-2-2-.708.708 2 2 .708-.708zm-2.708-2l-2 2 .708.708 2-2-.708-.708zM7 4.5V11h1V4.5H7zm7 3A6.5 6.5 0 017.5 14v1A7.5 7.5 0 0015 7.5h-1zM7.5 1A6.5 6.5 0 0114 7.5h1A7.5 7.5 0 007.5 0v1zM1 7.5A6.5 6.5 0 017.5 1V0A7.5 7.5 0 000 7.5h1zm-1 0A7.5 7.5 0 007.5 15v-1A6.5 6.5 0 011 7.5H0z" fill="currentColor"/></svg>
